!!!COM:	de Orto, Marbrianus
!!!CDT:	~1460///-1529//
!!!OPR:	Missa J'ay pris amours
!!!ONM:	3
!!!OTL:	Credo (first setting)
!!!AGN:	Mass; Credo
!!!SCT:	Ort1002c
!!!SCA:	Ort1002c
!!!voices-OPR:	4
!!!voices:	4
**kern	**kern	**kern	**kern
*staff4	*staff3	*staff2	*staff1
*Ivox	*Ivox	*Ivox	*Ivox
*I"Bassus	*I"Tenor	*I"Altus	*I"Discantus
*I'B	*I'T	*I'A	*I'D
*>[A,B,C,D]	*>[A,B,C,D]	*>[A,B,C,D]	*>[A,B,C,D]
*>A	*>A	*>A	*>A
*clefF4	*clefGv2	*clefGv2	*clefG2
*k[]	*k[]	*k[]	*k[]
*M3/1	*M3/1	*M3/1	*M3/1
*met(O)	*met(O)	*met(O)	*met(O)
!!section: Patrem
!!!OMD: Patrem
=1-	=1-	=1-	=1-
0.r	0.r	0.r	1a
.	.	.	1cc
.	.	.	1b
=2	=2	=2	=2
0.r	0.r	1c	1e
.	.	1f	1r
.	.	1e	1g
=3	=3	=3	=3
1F	0.r	1A	2.a/
.	.	.	4b\
1A	.	2r	2cc\
.	.	1e	2a/
1G	.	.	1b
.	.	2d\	.
=4	=4	=4	=4
1C	0.r	1e	2r
.	.	.	2e/
2D\	.	2r	2d/
2C/	.	1A	2e/
1D	.	.	1f
.	.	2A/	.
=5	=5	=5	=5
1C	0.r	1e	2r
.	.	.	2g/
1r	.	2f\	1cc
.	.	2e\	.
1D	.	2f\	1a
.	.	4e\	.
.	.	4d\	.
=6	=6	=6	=6
2E\	0.r	2c\	2r
2D\	.	2.d\	1a
1E	.	.	.
.	.	4c\	.
.	.	2c\	2g/
1D	.	2d\	2f/
.	.	4c\	[2g/
.	.	4B\	.
=7	=7	=7	=7
1r	0.r	1A	2g/]
.	.	.	2f#i/
1E	.	2r	1g
.	.	2.c\	.
2F\	.	.	2r
.	.	4d\	.
2E\	.	[2e\	[2cc\
=8	=8	=8	=8
1F	0.r	4e\]	4cc\]
.	.	4d\	4b\
.	.	2d\	2a/
1E	.	2e\	0g
.	.	4d\	.
.	.	4c\	.
1r	.	1B	.
=9	=9	=9	=9
1F	0.r	2A/	1a
.	.	4G/	.
.	.	4F/	.
2G\	.	2E/	1r
2F\	.	2F/	.
1G	.	2E/	1b
.	.	[2e\	.
=10	=10	=10	=10
1F	0.r	2e\]	2cc\
.	.	2d\	4b\
.	.	.	4a/
1r	.	2e\	2g/
.	.	2f\	2a/
1G	.	2d\	1b
.	.	[2e\	.
=11	=11	=11	=11
2A\	0.r	4e\]	2r
.	.	4f\	.
2G\	.	2g\	1e
1A	.	1c	.
.	.	.	2f/
1G	.	1r	2g/
.	.	.	2e/
=12	=12	=12	=12
1r	0.r	1d	1f
1A	.	2.e\	2.e/
.	.	4c\	4f/
2B\	.	2d\	2g/
2A\	.	2e\	[2a/
=13	=13	=13	=13
1B	0.r	1E	2a/]
.	.	.	2g/
1A	.	2F/	2a/
.	.	2.A/	2e/
1r	.	.	2r
.	.	4G/	.
.	.	2F/	[2a/
=14	=14	=14	=14
1B	0.r	1E	2a/]
.	.	.	2g/
2c\	.	1r	2a/
2B\	.	.	2g/
1c	.	1e	2r
.	.	.	[2a/
=15	=15	=15	=15
1B	0.r	1d	2a/]
.	.	.	2g/
1r	.	2e\	2cc\
.	.	2f\	2dd\
1E	.	2g\	1ee
.	.	[2c\	.
=16	=16	=16	=16
2F\	0.r	4c\]	2a/
.	.	4d\	.
2E\	.	2e\	2.b\
1F	.	1A	.
.	.	.	4a/
.	.	.	1a
1E	.	1B	.
.	.	.	2g#i/
=17	=17	=17	=17
2r	1A	1A	1a
2.A\	.	.	.
.	2c\	1.e	1r
4G\	.	.	.
2.E\	2c\	.	.
.	1B	.	1r
4F\	.	.	.
4G\	.	2d\	.
4A\	.	.	.
=18	=18	=18	=18
2B\	1E	1.e	1g
1c	.	.	.
.	1r	.	2a/
2A\	.	2f\	2cc\
1G	1r	1g	1b
=19	=19	=19	=19
2r	1A	2c\	1e
2C/	.	2e\	.
2D\	2A/	2f\	1r
2F\	2A/	1d	.
1E	1G	.	1g
.	.	2c\	.
=20	=20	=20	=20
2D\	1A	1r	2f/
2.C/	.	.	2.e/
.	1E	2G/	.
4BB/	.	.	4d/
2AA/	.	1A	2c/
1E	1r	.	1B
.	.	2G/	.
=21	=21	=21	=21
2F\	2r	2A/	1r
2E\	2G/	2B\	.
2r	2A/	2c\	1r
2G\	2B\	4B\	.
.	.	4G/	.
2F\	2c\	2A/	2a/
2G\	4B\	2G/	2b\
.	4G/	.	.
=22	=22	=22	=22
2F\	2A/	1r	2cc\
4G\	2G/	.	4b\
4E\	.	.	4g/
2F\	2r	2A/	2a/
2E\	2G/	4B\	1r
.	.	4c\	.
2F\	2A/	2d\	.
2E\	2B\	[2e\	2g/
=23	=23	=23	=23
2r	2c\	1e]	2a/
2E\	4B\	.	2g/
.	4G/	.	.
2F\	2A/	2c\	2r
4G\	2G/	4B\	2g/
4E\	.	2e\	.
2F\	2r	.	2a/
.	.	4d\	.
4E\	2B\	2e\	2g/
4G\	.	.	.
=24	=24	=24	=24
2.F\	2c\	2r	2.a/
.	2d\	2f\	.
8E\L	.	.	4b\
8D\J	.	.	.
2C/	2e\	1g	2cc\
2G\	4d\	.	2b\
.	4B\	.	.
2A\	4c\	2c\	2e/
.	2A/	.	.
4F\	.	4d\	2r
4E\	4B\	[4e\	.
=25	=25	=25	=25
2F\	4A/	4e\]	2a/
.	4F/	4d\	.
2E\	2G/	1e	2b\
2r	1A	.	2.cc\
2F\	.	2c\	.
.	.	.	4dd\
1G	2r	2B\	4ee\
.	.	.	2dd\
.	2B\	2G/	.
.	.	.	8cc\L
.	.	.	8b\J
=26	=26	=26	=26
1F	2c\	2r	2a/
.	2d\	2A/	2a/
2E\	4e\	4B\	2g/
.	2c\	4c\	.
2F\	.	2A/	4a/
.	4d\	.	2a/
1E	4c\	1e	.
.	4A/	.	4f#i/
.	2B\	.	2g#i/
=27	=27	=27	=27
1r	0A	2r	1a
.	.	2.e\	.
2r	.	.	1r
.	.	4d\	.
1A	.	2.c\	.
.	1r	.	1r
.	.	4B\	.
2G\	.	[2e\	.
=28	=28	=28	=28
1F	1A	2e\]	0.r
.	.	2d\	.
2.E\	2c\	1e	.
.	1B	.	.
4F\	.	.	.
1G	.	2d\	.
.	2G/	[2e\	.
=29	=29	=29	=29
1C	2A/	4e\]	0.r
.	.	4d\	.
.	1G	4e\	.
.	.	4f\	.
2E\	.	2g\	.
2F\	1c	2a\	.
1D	.	1f	.
.	2B\	.	.
=30	=30	=30	=30
1C	1c	1e	2r
.	.	.	2e/
2r	1r	2d\	2f/
2G\	.	2B\	2e/
2A\	1r	2c\	1c
[2c\	.	2A/	.
=31	=31	=31	=31
2c\]	1r	1G	1d
2B\	.	.	.
1c	1.A	2r	2c/
.	.	1e	1cc
1r	.	.	.
.	2G/	[2e\	[2b\
=32	=32	=32	=32
1r	1F	4e\]	2b\]
.	.	4d\	.
.	.	2d\	1a
1B	1E	1e	.
.	.	.	2g/
2A\	2r	[1c	2a/
2c\	2e\	.	2g/
=33	=33	=33	=33
2F\	2f\	1c]	2a/
1c	2e\	.	1g
.	1c	2e\	.
2A\	.	2f\	1cc
1G	1d	1g	.
.	.	.	2b\
=34	=34	=34	=34
2r	1c	2e\	1cc
2c\	.	1a	.
2B\	1r	.	1r
2G\	.	1g	.
1A	1r	.	1cc
.	.	[2f\	.
=35	=35	=35	=35
2E\	0.r	2f\]	2b\
2G\	.	1e	2g/
1F	.	.	1a
.	.	2d\	.
2E\	.	2e\	2g/
[2A\	.	2c\	[2e/
=36	=36	=36	=36
2A\]	1c	2e\	2e/]
2F\	.	2f\	1a
2G\	2B\	2d\	.
2E\	2G/	2c\	1g
1D	1A	1d	.
.	.	.	2f#i/
=37	=37	=37	=37
2r	2G/	2B\	1g
1C	1E	4c\	.
.	.	4d\	.
.	.	2e\	1r
2D\	1A	2d\	.
1E	.	1r	1r
.	2G/	.	.
=38	=38	=38	=38
2C/	2A/	1r	1r
2D\	2B\	.	.
1BB	1G	1d	1r
1AA	2r	2.c\	2.a/
.	[2c\	.	.
.	.	4B\	4g/
=39	=39	=39	=39
2r	2c\]	2A/	4f/
.	.	.	4e/
2E\	2B\	2G/	1e
1F	1A	2c\	.
.	.	2A/	2d/
1E	2G/	2B\	1e
.	[2c\	2G/	.
=40	=40	=40	=40
1F	2c\]	2c\	1a
.	2d\	2A/	.
1E	1e	2B\	2g/
.	.	2e\	1cc
2F\	1A	2c\	.
2D\	.	2f\	[2dd\
=41	=41	=41	=41
2G\	2G/	2r	2dd\]
2E\	1c	2g\	2.ee\
2A\	.	2e\	.
.	.	.	4dd\
2G\	2d\	2.g\	2b\
2C/	2e\	.	2cc\
.	.	4e\	.
2D\	4d\	2f\	4b\
.	4c\	.	4a/
=42	=42	=42	=42
2E\	2B\	2e\	2g/
2F\	2A/	2d\	1a
1E	1B	1e	.
.	.	.	2g#i/
2r	1r	2A/	1a
[2A\	.	[2c\	.
=43	=43	=43	=43
2A\]	1E	4c\]	1r
.	.	4d\	.
2G\	.	2e\	.
1c	2F/	2A/	2r
.	2E/	2e\	2g/
1r	2A/	2f\	2a/
.	2G/	[2e\	2b\
=44	=44	=44	=44
1r	1F	2e\]	2cc\
.	.	2d\	4b\
.	.	.	4a/
1r	1E	2e\	2g/
.	.	1g	2b\
1d	1r	.	1a
.	.	2f#i\	.
=45	=45	=45	=45
2G\	1r	2g\	1g
1c	.	2e\	.
.	1G	1d	1r
2B\	.	.	.
2c\	2.A/	1r	1r
[2A\	.	.	.
.	4G/	.	.
=46	=46	=46	=46
2A\]	4F/	2r	1r
.	4E/	.	.
2G\	1E	2B\	.
1F	.	2c\	1r
.	2D/	2d\	.
1E	1E	4G/	2r
.	.	4A/	.
.	.	2B\	2g/
=47	=47	=47	=47
2r	1r	2c\	2a/
2G\	.	2d\	2b\
2F\	1r	2A/	2cc\
2E\	.	1c	2g/
2F\	2r	.	2a/
2E\	2G/	[2e\	2b\
=48	=48	=48	=48
0.r	2A/	2e\]	2cc\
.	2B\	2d\	2dd\
.	2.c\	2.e\	2.g/
.	4B\	4f\	4a/
.	2G/	1g	4b\
.	.	.	4cc\
.	2B\	.	[2dd\
=49	=49	=49	=49
1r	1A	1c	2dd\]
.	.	.	1cc
2r	1G	1d	.
2G\	.	.	2b\
2.A\	1r	2.c\	1cc
4G\	.	4B\	.
=50	=50	=50	=50
2E\	1r	2c\	2r
2D\	.	2d\	1a
1E	1r	1B	.
.	.	.	2g/
2r	2r	2A/	2a/
2E\	2B\	[2e\	2g/
=51	=51	=51	=51
1G	2B\	2e\]	0.r
.	2B\	2d\	.
2.A\	2.c\	2f\	.
.	.	1e	.
4G\	4B\	.	.
2E\	2G/	.	.
2D\	2A/	2f\	.
=52	=52	=52	=52
2G\	2B\	2e\	2r
2E\	1G	1c	2g/
1D	.	.	2a/
.	2F/	2B\	4g/
.	.	.	4f/
2.C/	1G	1c	[1e
4D\	.	.	.
=53	=53	=53	=53
4E\	1r	1B	2e/]
4F\	.	.	.
2G\	.	.	2d/
1C	2r	2c\	2.g/
.	2E/	1A	.
.	.	.	8f/L
.	.	.	8e/J
1BB	2F/	.	1d
.	2G/	4D/	.
.	.	4E/	.
=54	=54	=54	=54
2r	2A/	4F/	1c
.	.	4G/	.
2AA/	2E/	2A/	.
2BB/	1r	1G	2r
2C/	.	.	2e/
2D\	2r	2F/	2f/
2C/	2E/	[2c\	2g/
=55	=55	=55	=55
2r	2F/	2c\]	2a/
2C/	2G/	1c	2e/
2F\	2A/	.	2r
2G\	2E/	2B\	2b\
2A\	1r	1e	2.cc\
2E\	.	.	.
.	.	.	4b\
=56	=56	=56	=56
2F\	2r	2r	2a/
2E\	2G/	2B\	2g/
2r	2A/	1e	2cc\
2E\	2G/	.	2b\
2F\	2.c\	2A/	2r
2E\	.	2e\	2g/
.	4B\	.	.
=57	=57	=57	=57
2F\	2A/	2c\	2a/
2G\	2G/	2B\	2b\
2r	1r	1c	1e
2C/	.	.	.
2D\	2r	2A/	2f/
2C/	2G/	[2c\	2g/
=58	=58	=58	=58
2F\	2A/	4c\]	2c/
.	.	4d\	.
2E\	2G/	1e	1g
1C	2.c\	.	.
.	.	2e\	2g/
.	4B\	.	.
2r	2A/	2f\	2a/
2E\	2G/	2g\	2e/
=59	=59	=59	=59
2F\	1r	2.c\	2r
2E\	.	.	2g/
.	.	4B\	.
2F\	2c\	2A/	2a/
2G\	4B\	2E/	2g/
.	2e\	.	.
2r	.	2A/	2cc\
.	4d\	.	.
2G\	2B\	2G/	2dd\
=60	=60	=60	=60
2.C/	2c\	2r	1ee
.	1A	2c\	.
4D\	.	.	.
1E	.	1B	1r
.	2G#i/	.	.
2.F\	1A	2A/	1cc
.	.	[2f\	.
4E\	.	.	.
=61	=61	=61	=61
2D\	1r	2f\]	2dd\
2C/	.	2g\	2ee\
2D\	1r	2f\	2a/
2AA/	.	2e\	1cc
2A\	2c\	2f\	.
2G\	2d\	2g\	2b\
=62	=62	=62	=62
1F	1A	2c\	2cc\
.	.	2d\	1a
1E	1B	0el	.
.	.	.	2g#i/
1AAl	1Al	.	1al
!!LO:LB:i:g=z
=63||	=63||	=63||	=63||
*>B	*>B	*>B	*>B
*clefF4	*clefGv2	*clefGv2	*clefG2
*k[]	*k[]	*k[]	*k[]
*M2/1	*M2/1	*M2/1	*M2/1
*met(C|)	*met(C|)	*met(C|)	*met(C|)
!!section: Et incarnatus est
!!!OMD: Et incarnatus est
1A	1A	0r	0r
1A	1c	.	.
=64	=64	=64	=64
1G	1B	1r	0r
1A	1A	1e	.
=65	=65	=65	=65
1D	2d\	1f	0a
.	1d	.	.
1A	.	1e	.
.	2c\	.	.
=66	=66	=66	=66
0r	1.d	2.d\	1a
.	.	4e\	.
.	.	4f\	1a
.	.	4g\	.
.	4c\	[2a\	.
.	4B\	.	.
=67	=67	=67	=67
0A	1A	2a\]	0cc
.	.	1g	.
.	2r	.	.
.	2c\	2f#i\	.
=68	=68	=68	=68
1G	2d\	1g	0b
.	[2e\	.	.
2E\	4e\]	1r	.
.	4d\	.	.
2G\	2B\	.	.
=69	=69	=69	=69
1A	2c\	1r	0e
.	2A/	.	.
2E\	1B	1g	.
2G\	.	.	.
=70	=70	=70	=70
2A\	2r	2e\	1r
2E\	1c	2g\	.
2F\	.	2a\	1a
4E\	2d\	4g\	.
4D\	.	4f\	.
=71	=71	=71	=71
2A\	2c\	2e\	2a/
2F\	2A/	2d\	2a/
1E	1B	[1e	1g
=72	=72	=72	=72
1r	1A	2e\]	1a
.	.	2f\	.
1C	2G/	1g	1e
.	2A/	.	.
=73	=73	=73	=73
1E	2B\	1g	1g
.	1c	.	.
1F	.	1f	1a
.	4B\	.	.
.	4A/	.	.
=74	=74	=74	=74
1G	1d	2r	0b
.	.	2d\	.
1E	2r	1e	.
.	2G/	.	.
=75	=75	=75	=75
1r	2.A/	2.e\	0cc
.	4B\	4d\	.
1A	1c	2e\	.
.	.	2f\	.
=76	=76	=76	=76
2G\	2r	1g	1b
2E\	2G/	.	.
1E	2B\	2r	1g
.	[2c\	[2g\	.
=77	=77	=77	=77
0r	2c\]	2g\]	0a
.	4B\	4f#i\	.
.	4A/	4e\	.
.	1d	1f#i	.
=78	=78	=78	=78
1B	1G	1g	0g
1c	1E	2r	.
.	.	[2g\	.
=79	=79	=79	=79
1d	1F	2g\]	1r
.	.	1a	.
1e	1E	.	1b
.	.	2g\	.
=80	=80	=80	=80
0A	0r	1a	0cc
.	.	[1a	.
=81	=81	=81	=81
0B	0r	2a\]	0dd
.	.	4g\	.
.	.	4f\	.
.	.	1g	.
=82	=82	=82	=82
0E	0r	2r	1.ee
.	.	1g	.
.	.	4f\	4dd\
.	.	4e\	4cc\
=83	=83	=83	=83
1G	1d	1d	1b
1G	1B	2r	1dd
.	.	[2g\	.
=84	=84	=84	=84
2r	1e	2g\]	2cc\
2E\	.	1g	1b
2G\	2.d\	.	.
2F\	.	2d\	2a/
.	4c\	.	.
=85	=85	=85	=85
2E\	2c\	2e\	2g/
2D\	2d\	2f\	1a
1E	1B	[1el	.
.	.	.	2g#i/
=86	=86	=86	=86
0AAl	0Al	0e]	0al
!!LO:LB:i:g=z
=87||	=87||	=87||	=87||
*>C	*>C	*>C	*>C
*clefF4	*clefGv2	*clefGv2	*clefG2
*k[]	*k[]	*k[]	*k[]
*M2/1	*M2/1	*M2/1	*M2/1
*met(C|)	*met(C|)	*met(C|)	*met(C|)
!!section: Crucifixus
!!!OMD: Crucifixus
0r	1E	1r	0r
.	1A	1e	.
=88	=88	=88	=88
1r	1G	2e\	0r
.	.	1e	.
1C	1E	.	.
.	.	[2g\	.
=89	=89	=89	=89
1E	0r	2g\]	1e
.	.	1e	.
1F	.	.	1a
.	.	2d\	.
=90	=90	=90	=90
1E	2r	1e	1g
.	2E/	.	.
1C	2G/	1r	1e
.	[2A/	.	.
=91	=91	=91	=91
1r	2A/]	1e	2r
.	2c\	.	1a
1E	1B	2e\	.
.	.	[2e\	2g/
=92	=92	=92	=92
1F	1A	2e\]	1a
.	.	2d\	.
2E\	2r	1e	2g/
2C/	2A/	.	2e/
=93	=93	=93	=93
1D	2A/	2r	1f
.	2A/	2A/	.
1AA	1A	2.c\	1e
.	.	4d\	.
=94	=94	=94	=94
1A	1r	2e\	2r
.	.	2f\	2c/
1r	2E/	1g	2c/
.	[2G/	.	2d/
=95	=95	=95	=95
2r	2G/]	1r	2e/
2D\	2A/	.	2f/
1G	1B	[1g	1d
=96	=96	=96	=96
2C/	2c\	2g\]	1c
2E\	2G/	2c\	.
2F\	2A/	2d\	2r
2G\	2G/	2e\	2g/
=97	=97	=97	=97
1F	1c	1f	1a
1E	2r	2g\	1g
.	2G/	[2g\	.
=98	=98	=98	=98
1r	1A	2g\]	1.cc
.	.	2f\	.
2C/	1G	1g	.
2E\	.	.	2b\
=99	=99	=99	=99
1F	1.c	1r	1a
2E\	.	2r	1g
[2G\	2B\	[2d\	.
=100	=100	=100	=100
2G\]	1A	2d\]	1r
2F\	.	2d\	.
1C	2G/	2c\	1e
.	[2G/	[2c\	.
=101	=101	=101	=101
1D	2G/]	2c\]	1f
.	2F/	2B\	.
1C	1G	1c	1e
=102	=102	=102	=102
0r	1F	2r	1.a
.	.	4A/	.
.	.	4B\	.
.	1E	4c\	.
.	.	4d\	.
.	.	[2e\	2g/
=103	=103	=103	=103
2r	1r	2e\]	1f
2D\	.	2d\	.
1A	2r	1e	1e
.	2c\	.	.
=104	=104	=104	=104
2G\	2d\	0r	1r
2.c\	1e	.	.
.	.	.	1g
4B\	.	.	.
4A\	[2e\	.	.
4G\	.	.	.
=105	=105	=105	=105
1F	2e\]	2r	1a
.	2d\	2A/	.
2r	1e	2B\	1g
2E\	.	[2c\	.
=106	=106	=106	=106
1F	1A	2c\]	1.cc
.	.	2A/	.
2E\	1r	4c\	.
.	.	4B\	.
2G\	.	[2e\	2b\
=107	=107	=107	=107
1F	1A	2e\]	1a
.	.	2d\	.
2E\	1B	2e\	1g
2G\	.	[2d\	.
=108	=108	=108	=108
1F	2A/	4d\]	1r
.	.	4e\	.
.	1c	2f\	.
2r	.	1g	1e
2E\	2C/	.	.
=109	=109	=109	=109
1A	1D	1r	1f
2A\	1C	1c	1e
2G\	.	.	.
=110	=110	=110	=110
1F	1r	1d	1.a
1E	2r	1e	.
.	2C/	.	2g/
=111	=111	=111	=111
1r	1D	2.A/	1f
.	.	4B\	.
2r	2C/	4c\	1e
.	.	4d\	.
2E\	[2c\	2e\	.
=112	=112	=112	=112
2F\	2c\]	1A	1r
2F\	2d\	.	.
1E	1e	1r	1b
=113	=113	=113	=113
1r	1A	1e	1cc
1B	1G	[1g	1dd
=114	=114	=114	=114
1c	2r	1g]	1.ee
.	2c\	.	.
1E	2c\	[1g	.
.	2e\	.	4dd\
.	.	.	4cc\
=115	=115	=115	=115
1G	1d	2g\]	1b
.	.	2d\	.
1F	2r	[1f	2cc\
.	2A/	.	[2dd\
=116	=116	=116	=116
1D	1d	1f]	4dd\]
.	.	.	4cc\
.	.	.	4b\
.	.	.	4a/
1E	1B	1e	1g
=117	=117	=117	=117
2r	2r	2r	2r
2E\	2e\	2g\	2b\
2G\	2d\	2g\	2b\
2A\	2c\	2f\	2a/
=118	=118	=118	=118
1G	2d\	1g	2b\
.	2B\	.	2dd\
2r	2A/	2e\	2cc\
2E\	2G/	2e\	[2b\
=119	=119	=119	=119
1F	1A	1d	2b\]
.	.	.	1a
1E	1B	1e	.
.	.	.	2g#i/
=120	=120	=120	=120
1AA	1A	1c	1a
1r	1r	1r	1r
=121	=121	=121	=121
1C	1G	1c	1e
2D\	2F/	2A/	2f/
2D\	2D/	2d\	2f/
=122	=122	=122	=122
1AA	1A	1c	1e
2r	2r	2r	2r
2C/	2G/	2e\	2e/
=123	=123	=123	=123
1.D	2B-i\	2.d\	1.f
.	2A/	.	.
.	.	4c\	.
.	1F	2A/	.
2D\	.	2B\	2f/
=124	=124	=124	=124
1C	1G	0c	1e
1r	2r	.	1r
.	2A/	.	.
=125	=125	=125	=125
0r	2F/	2r	1a
.	2F/	1c	.
.	1E	.	2.g/
.	.	2g\	.
.	.	.	4f/
=126	=126	=126	=126
1A	0r	2f\	1e
.	.	1e	.
2G\	.	.	1r
2F\	.	[2d\	.
=127	=127	=127	=127
1E	0r	2d\]	2r
.	.	2c#i\	2e/
[1D	.	1d	1f
=128	=128	=128	=128
1D]	1A	2r	1f
.	.	2A/	.
1r	2G/	2B\	1e
.	2E/	[2c\	.
=129	=129	=129	=129
2r	2F/	2c\]	1a
2A\	2F/	2d\	.
2B\	1E	1e	2g/
2c\	.	.	2e/
=130	=130	=130	=130
2d\	1D	1A	2f/
2d\	.	.	2f/
1e	2r	2.c\	1e
.	2A/	.	.
.	.	4d\	.
=131	=131	=131	=131
2E\	1c	2e\	1r
1F	.	2A/	.
.	1d	1f	1a
4E\	.	.	.
4D\	.	.	.
=132	=132	=132	=132
1C	0e	1e	1cc
1r	.	[1g	1b
=133	=133	=133	=133
1.c	1r	1g]	1e
.	2A/	1r	1r
2F\	[2c\	.	.
=134	=134	=134	=134
1F	2c\]	1f	1a
.	2d\	.	.
2r	[1e	2e\	2cc\
2A\	.	2c\	2cc\
=135	=135	=135	=135
2G\	1e]	1g	1b
2E\	.	.	.
2A\	1r	2.c\	2.e/
4G\	.	.	.
4F\	.	4d\	4f/
=136	=136	=136	=136
2E\	1r	2e\	4g/
.	.	.	4a/
1G	.	2d\	1b
.	1e	2G/	.
4F\	.	2c\	4a/
4E\	.	.	4g/
=137	=137	=137	=137
1D	1f	1d	1a
1C	1e	1e	2r
.	.	.	2g/
=138	=138	=138	=138
1F	0c	1A	1a
1A	.	2e\	[1cc
.	.	2f\	.
=139	=139	=139	=139
0G	0d	0g	1cc]
.	.	.	1b
=140	=140	=140	=140
2.C/	[0c	2.e\	0cc
4D\	.	4f\	.
2E\	.	2g\	.
2F\	.	[2c\	.
=141	=141	=141	=141
2.C/	1c]	4c\]	0r
.	.	4d\	.
.	.	4e\	.
4D\	.	4f\	.
4E\	1B	[1g	.
4F\	.	.	.
2G\	.	.	.
=142	=142	=142	=142
1D	0A	2g\]	0r
.	.	4f#i\	.
.	.	4e\	.
1D	.	1f#i	.
=143	=143	=143	=143
1r	0G	2g\	2.b\
.	.	4f\	.
.	.	4e\	4cc\
2G\	.	2d\	2dd\
2G\	.	[2e\	[2g/
=144	=144	=144	=144
2E\	[0c	2e\]	2g/]
2F\	.	2.A/	2a/
1C	.	.	2.e/
.	.	4B\	.
.	.	4c\	.
.	.	4d\	4f/
=145	=145	=145	=145
0r	0c]	1e	4g/
.	.	.	4a/
.	.	.	1g
.	.	1r	.
.	.	.	[2a/
=146	=146	=146	=146
0r	1d	0r	4a/]
.	.	.	4g/
.	.	.	4f/
.	.	.	4e/
.	1d	.	1f
=147	=147	=147	=147
1E	0e	1B	1e
2A\	.	2c\	2r
2G\	.	2B\	2g/
=148	=148	=148	=148
1F	0A	2c\	1a
.	.	2d\	.
2r	.	1c	1e
2A\	.	.	.
=149	=149	=149	=149
1E	1G	1B	2r
.	.	.	2g/
2F\	[1c	2A/	2a/
2E\	.	2e\	2g/
=150	=150	=150	=150
2.A\	1c]	1e	2.cc\
4G\	.	.	4b\
1F	1d	2r	1a
.	.	2A/	.
=151	=151	=151	=151
1E	0e	2B\	1g
.	.	2.c\	.
2r	.	.	1cc
.	.	4d\	.
2C/	.	2e\	.
=152	=152	=152	=152
2.F\	0A	2c\	1r
.	.	1f	.
4G\	.	.	.
1A	.	.	1cc
.	.	2e\	.
=153	=153	=153	=153
2B\	2G/	2g\	2dd\
1A	1c	1a	1ee
2D\	2d\	2a\	4dd\
.	.	.	4cc\
=154	=154	=154	=154
2G\	1.e	4g\	2b\
.	.	4f\	.
2.A\	.	4e\	1cc
.	.	4d\	.
.	.	2c\	.
4G\	.	.	.
[2E\	4d\	[2e\	4b\
.	4c\	.	4a/
=155	=155	=155	=155
2E\]	0B	2e\]	2g/
2D\	.	2f\	1a
1E	.	1e	.
.	.	.	2g/
=156	=156	=156	=156
1r	1r	2f\	1cc
.	.	2.e\	.
1E	1G	.	1b
.	.	4f\	.
.	.	[2g\	.
=157	=157	=157	=157
1C	1c	2g\]	1ee
.	.	2g\	.
1G	2d\	1g	2dd\
.	[2e\	.	2b\
=158	=158	=158	=158
1A	2e\]	1e	2cc\
.	2c\	.	1a
2F\	2d\	1r	.
[2E\	[2e\	.	2cc\
=159	=159	=159	=159
4E\]	2e\]	1g	1b
4F\	.	.	.
2G\	2.E/	.	.
2C/	.	2.g\	2.e/
.	4F/	.	.
[2E\	4G/	.	.
.	4A/	4f\	4f/
=160	=160	=160	=160
2E\]	2B\	4e\	2g/
.	.	4d\	.
2F\	2.A/	1c	2a/
2A\	.	.	2.e/
.	4B\	.	.
4G\	4c\	2A/	.
4F\	4d\	.	4f/
=161	=161	=161	=161
2E\	2e\	2B\	2g/
2F\	2.c\	2A/	2a/
2E\	.	2e\	2g/
.	4B\	.	.
2F\	2A/	4c\	[2cc\
.	.	4d\	.
=162	=162	=162	=162
2A\	2c\	4e\	4cc\]
.	.	4f\	4b\
2G\	2B\	2g\	2dd\
2A\	2A/	1e	2cc\
2E\	2G/	.	[2b\
=163	=163	=163	=163
1F	1A	1d	2b\]
.	.	.	1a
1E	1B	1e	.
.	.	.	2g#i/
=164	=164	=164	=164
0AAl	0Al	0el	0al
!!LO:LB:i:g=z
=165||	=165||	=165||	=165||
*>D	*>D	*>D	*>D
*clefF4	*clefGv2	*clefGv2	*clefG2
*k[]	*k[]	*k[]	*k[]
*M3/1	*M3/1	*M3/1	*M3/1
*met(C|3)	*met(C|3)	*met(C|3)	*met(C|3)
!!section: Qui cum patre et filio
!!!OMD: Qui cum patre et filio
0E	1r	1B	0.r
.	1r	1c	.
[1E	1B	1B	.
=166	=166	=166	=166
1E]	1c	0e	0.r
0F	0A	.	.
.	.	1d	.
=167	=167	=167	=167
0E	1B	0g	0.r
.	0c	.	.
[1A	.	1f	.
=168	=168	=168	=168
1A]	1c	0e	0.r
1G	1B	.	.
1F	1A	1d	.
=169	=169	=169	=169
1E	0.r	1r	1e
1r	.	1c	1e
1r	.	1d	1f
=170	=170	=170	=170
0.r	0.r	1e	1e
.	.	0f	0a
=171	=171	=171	=171
0.r	0.r	0e	1g
.	.	.	0f
.	.	1d	.
=172	=172	=172	=172
1E	0.r	0e	1e
1E	.	.	1g
1F	.	2c\	1a
.	.	2d\	.
=173	=173	=173	=173
1E	1G	1e	1b
1A	1A	1c	1cc
1G	1B	1g	[1dd
=174	=174	=174	=174
1F	1A	1a	2dd\]
.	.	.	2cc\
1D	0d	1f	2b\
.	.	.	2a/
1G	.	1g	1b
=175	=175	=175	=175
1A	1c	0e	0a
0E	0B	.	.
.	.	1e	1g#i
=176	=176	=176	=176
1r	1A	0c	0.a
1F	1r	.	.
1F	1r	1d	.
=177	=177	=177	=177
1E	0c	0e	0.r
0A	.	.	.
.	1c	1f	.
=178	=178	=178	=178
0G	0d	0g	0b
1G	1d	1g	1b
=179	=179	=179	=179
0.E	0e	0g	0b
.	1r	1e	1b
=180	=180	=180	=180
0.r	0A	0e	0cc
.	1A	2c\	2b\
.	.	2d\	2a/
=181	=181	=181	=181
1E	1B	2e\	0g
.	.	2f\	.
2C/	1c	0g	.
2D\	.	.	.
2E\	2B\	.	1r
2F\	2A/	.	.
=182	=182	=182	=182
2G\	1G	0g	0dd
2A\	.	.	.
1B	1r	.	.
1A	1r	1a	1cc
=183	=183	=183	=183
1G	0d	1d	1b
0F	.	0f	0a
.	1c	.	.
=184	=184	=184	=184
1G	1B	1e	0g
0D	0A	0d	.
.	.	.	1f#i
=185	=185	=185	=185
0d	0G	1.B	0g
.	.	2c\	.
1B	1r	2d\	1r
.	.	2e\	.
=186	=186	=186	=186
0A	0c	1f	0.r
.	.	0e	.
1G	1B	.	.
=187	=187	=187	=187
1A	1c	0A	0.r
0F	0d	.	.
.	.	1A	.
=188	=188	=188	=188
0E	0.e	1B	0g
.	.	1.c	.
1C	.	.	1g
.	.	2B\	.
=189	=189	=189	=189
1E	1r	1G	1g
0D	1r	0d	0a
.	1A	.	.
=190	=190	=190	=190
1C	0c	1.g	1e
1r	.	.	1r
.	.	2f\	.
1r	1B	1d	1g
=191	=191	=191	=191
1F	1A	1c	0a
1F	1r	0d	.
1G	1r	.	1g
=192	=192	=192	=192
1A	1c	0c	0e
1c	1A	.	.
1B	1G	1d	1r
=193	=193	=193	=193
1E	0c	1e	1g
1F	.	1A	1a
1E	1c	1e	1g
=194	=194	=194	=194
1F	1c	1c	0a
1D	1.d	1f	.
1G	.	1d	1b
.	2c\	.	.
=195	=195	=195	=195
2F\	1A	1r	0cc
2E\	.	.	.
1F	1r	1c	.
1F	1r	1d	2b\
.	.	.	2a/
=196	=196	=196	=196
0E	0B	1.e	0.g
.	.	2f\	.
1C	[1c	1g	.
=197	=197	=197	=197
0F	1c]	0a	1r
.	0d	.	1r
2G\	.	1g	1b
2G\	.	.	.
=198	=198	=198	=198
1C	0e	0g	0cc
1r	.	.	.
1r	1d	1f	1dd
=199	=199	=199	=199
0C	0c	0g	0ee
1C	2B\	1g	2dd\
.	2A/	.	2cc\
=200	=200	=200	=200
1.E	0G	1.g	0b
2F\	.	2f\	.
1G	1r	1d	1r
=201	=201	=201	=201
1C	0A	1e	0.r
1.D	.	1f	.
.	1A	1e	.
2C/	.	.	.
=202	=202	=202	=202
1AA	1A	1c	0.r
0BB	0G	0d	.
=203	=203	=203	=203
1AA	1r	0c	0e
1r	1E	.	.
1r	1G	1B	1e
=204	=204	=204	=204
0.r	1A	1c	1e
.	0F	0A	0d
=205	=205	=205	=205
0.r	0E	0B	1r
.	.	.	1r
.	1r	1c	1e
=206	=206	=206	=206
0.r	0.r	2A/	1.e
.	.	2B\	.
.	.	2c\	.
.	.	2d\	2f/
.	.	1e	1g
=207	=207	=207	=207
0.r	0.r	1f	1a
.	.	0d	0f
=208	=208	=208	=208
1C	1G	1e	1e
1C	1G	1r	1r
[1F	[1A	1r	1c
=209	=209	=209	=209
2F\]	2A/]	0.r	1d
2E\	2G/	.	.
0D	2F/	.	0f
.	2E/	.	.
.	1D	.	.
=210	=210	=210	=210
1AA	0A	0.r	1e
0BB	.	.	0d
.	1G#i	.	.
=211	=211	=211	=211
1AA	1A	0e	1.c
1AA	1.c	.	.
.	.	.	2d/
[1C	.	[1c	2e/
.	2d\	.	2f/
=212	=212	=212	=212
1C]	1e	1c]	1g
1F	1A	1c	1a
1C	[1c	1g	1e
=213	=213	=213	=213
1C	2c\]	1e	1g
.	2B\	.	.
1.D	0A	1d	1.f
.	.	1r	.
2AA/	.	.	2e/
=214	=214	=214	=214
1C	1G	1c	0e
0D	0F	0A	.
.	.	.	1d
=215	=215	=215	=215
*M2/1	*M2/1	*M2/1	*M2/1
*met(C|)	*met(C|)	*met(C|)	*met(C|)
1r	1E	1B	1e
1AA	1A	1c	1r
=216	=216	=216	=216
1E	1G	1B	1r
1AA	1A	1c	1a
=217	=217	=217	=217
1AA	1E	1e	1cc
1E	2r	2e\	1b
.	2G/	[2c\	.
=218	=218	=218	=218
1C	2A/	4c\]	1e
.	.	4d\	.
.	2G/	2e\	.
2F\	2A/	2d\	2r
2G\	2B\	2e\	2g/
=219	=219	=219	=219
2F\	1.c	2f\	2a/
2E\	.	2g\	2g/
2F\	.	2f\	2a/
[2G\	2B\	2d\	2b\
=220	=220	=220	=220
2G\]	1A	4f\	1cc
.	.	4e\	.
2F\	.	4d\	.
.	.	4c\	.
1G	1G	1B	1r
=221	=221	=221	=221
1A	0r	2.e\	1.cc
.	.	4d\	.
1r	.	4e\	.
.	.	4f\	.
.	.	[2g\	2b\
=222	=222	=222	=222
1r	1r	2g\]	1a
.	.	2f#i\	.
1E	1B	1g	1g
=223	=223	=223	=223
1A	1c	2e\	1r
.	.	2f\	.
1G	1d	1g	1b
=224	=224	=224	=224
2F\	1r	1a	1cc
2A\	.	.	.
1G	1B	2r	1dd
.	.	2d\	.
=225	=225	=225	=225
0C	0c	0g	1.ee
.	.	.	4dd\
.	.	.	4cc\
=226	=226	=226	=226
1G	1d	1g	1b
2A\	1r	2r	2cc\
[2G\	.	2g\	[2dd\
=227	=227	=227	=227
2G\]	1B	2d\	4dd\]
.	.	.	4cc\
2G\	.	1g	4b\
.	.	.	4a/
2E\	1c	.	2g/
2F\	.	2f\	2a/
=228	=228	=228	=228
2G\	2G/	2d\	2b\
2A\	2.c\	2c\	2.e/
1E	.	1g	.
.	4d\	.	4f/
.	[2e\	.	2g/
=229	=229	=229	=229
2r	2e\]	0r	2.c/
2F\	4A/	.	.
.	4B\	.	4d/
4E\	4c\	.	4e/
4D\	4d\	.	4f/
2C/	2e\	.	4g/
.	.	.	4a/
=230	=230	=230	=230
2G\	2d\	2g\	2b\
2A\	2c\	2e\	2cc\
2F\	1d	2f\	2a/
2G\	.	[2d\	[2b\
=231	=231	=231	=231
1F	1A	1d]	2b\]
.	.	.	1a
1E	1B	[1el	.
.	.	.	2g#i/
=232	=232	=232	=232
0AAl	0Al	0e]	0al
==	==	==	==
*-	*-	*-	*-
!!!RDF**kern: l=long note in original notation
!!!RDF**kern: i=editorial accidental
!!!ENC:	Jesse Rodin 8/11/2013
!!!END:	2013/08/11/
!!!EED:	Jesse Rodin
!!!EEV:	2013/08/11/
!!!ONB:	Translated from MusicXML and edited on 2013/08/11/ by Craig Sapp
!!muse2ps: T^@{OPR}^u^@{ONM}{. }@{OTL}^C^@{COM}^i2I150v85,85,85,150c120
